brandFactory_export/2.Regular/Mano arriba_2Regular.svg

<?xml version="1.0" encoding="UTF-8"?>
<svg width="24px" height="24px" viewBox="0 0 24 24" version="1.1" xmlns="http://www.w3.org/2000/svg" xmlns:xlink="http://www.w3.org/1999/xlink">
    <title>2.Regular/Mano arriba_2Regular</title>
    <g id="Symbols" stroke="none" stroke-width="1" fill="none" fill-rule="evenodd">
        <g id="2.Regular/Mano-arriba_2Regular" fill="#5CB615" fill-rule="nonzero">
            <path d="M20.2420168,19.8218487 C20.2420168,20.5983193 20.0605042,21.1630252 19.687395,21.5495798 C19.3210084,21.9260504 18.6722689,22.1411765 17.8991597,22.1411765 L8.59495798,22.1411765 C8.50420168,22.0504202 8.39327731,21.8084034 8.35630252,21.7243697 C8.18487395,21.3546218 7.64033613,20.2453782 6.8907563,18.7193277 L6.85714286,18.6521008 C5.76470588,16.4336134 4.40672269,13.6739496 3.60672269,11.9630252 C3.51932773,11.7747899 3.34789916,11.307563 3.68403361,11.0386555 C3.84201681,10.9109244 4.01344538,10.8840336 4.13109244,10.8840336 C4.31932773,10.8840336 4.51428571,10.9546218 4.67226891,11.0823529 C4.93445378,11.2907563 5.19327731,11.6268908 5.53277311,12.205042 C5.79505182,12.652426 6.27468067,12.9274132 6.79327731,12.9277311 C6.9210084,12.9277311 7.05210084,12.9109244 7.17983193,12.8739496 C7.81512605,12.6957983 8.25546218,12.1142857 8.25546218,11.4487395 L8.25546218,2.62857143 C8.31596639,1.66386555 8.71596639,1.47226891 9.34789916,1.47226891 C10.1176471,1.47226891 10.4470588,1.80504202 10.4470588,2.58823529 L10.4470588,6.07058824 C10.4470588,6.53109244 10.6621849,6.97142857 11.0285714,7.25042017 C11.2840336,7.44537815 11.5966387,7.54957983 11.912605,7.54957983 C12.0470588,7.54957983 12.1781513,7.52941176 12.3092437,7.49243697 C12.4336134,7.45882353 12.5747899,7.43865546 12.7361345,7.43865546 C13.502521,7.43865546 13.6134454,7.82857143 13.6605042,7.99327731 C13.7714286,8.37983193 14.0302521,8.70252101 14.3831933,8.8907563 C14.5983193,9.00504202 14.8302521,9.06218487 15.0689076,9.06218487 C15.2235294,9.06218487 15.3781513,9.03865546 15.5294118,8.98823529 C15.6638655,8.94453782 15.8218487,8.9210084 16.0033613,8.9210084 C16.7731092,8.9210084 16.8806723,9.29747899 16.9310924,9.48235294 C17.0386555,9.87226891 17.3008403,10.1983193 17.6537815,10.3865546 C17.8689076,10.5042017 18.1042017,10.5613445 18.3428571,10.5613445 C18.497479,10.5613445 18.6521008,10.5378151 18.8033613,10.487395 C18.9344538,10.4436975 19.092437,10.4201681 19.2705882,10.4201681 C19.9663866,10.4201681 20.2521008,10.7092437 20.2521008,11.4151261 L20.2521008,19.8218487 L20.2420168,19.8218487 Z M19.2605042,8.9512605 C18.9210084,8.9512605 18.6117647,8.99831933 18.3327731,9.09243697 C18.0470588,8.06386555 17.2033613,7.45210084 15.9932773,7.45210084 C15.6537815,7.45210084 15.3378151,7.49915966 15.0621849,7.59327731 C14.7731092,6.57142857 13.9327731,5.9697479 12.7294118,5.9697479 C12.4336134,5.9697479 12.1579832,6.00672269 11.9092437,6.07731092 L11.9092437,2.59495798 C11.9092437,0.994957983 10.9277311,0 9.34789916,0 C7.82857143,0 6.89747899,0.924369748 6.79327731,2.54117647 L6.79327731,2.59495798 C6.79327731,2.90420168 6.78991597,8.78655462 6.79327731,11.4554622 C6.38655462,10.7630252 6.02016807,10.2789916 5.57983193,9.92941176 C5.14957983,9.58655462 4.63529412,9.41176471 4.13109244,9.41176471 C3.64705882,9.41176471 3.1697479,9.5697479 2.77310924,9.88907563 C1.99327731,10.5142857 1.80168067,11.5798319 2.28235294,12.605042 C3.09915966,14.3428571 4.47394958,17.1361345 5.57983193,19.3815126 C6.26890756,20.7798319 6.86386555,21.9865546 7.03193277,22.3529412 C7.20672269,22.7327731 7.62016807,23.6235294 8.55798319,23.6235294 L17.902521,23.6235294 C19.0823529,23.6235294 20.087395,23.2537815 20.7361345,22.5848739 C21.3815126,21.9159664 21.707563,20.9882353 21.707563,19.8218487 L21.707563,11.4252101 C21.7042017,9.89915966 20.7663866,8.9512605 19.2605042,8.9512605 Z" id="Mano-arriba_2Regular"></path>
        </g>
    </g>
</svg>

<svg width="24" height="24" viewBox="0 0 24 24" xmlns="http://www.w3.org/2000/svg"><path d="M20.242 19.822c0 .776-.181 1.341-.555 1.728-.366.376-1.015.591-1.788.591H8.595c-.09-.09-.202-.333-.239-.417-.171-.37-.716-1.479-1.465-3.005l-.034-.067c-1.092-2.218-2.45-4.978-3.25-6.689-.088-.188-.26-.655.077-.924a.703.703 0 01.447-.155c.188 0 .383.07.541.198.262.209.521.545.86 1.123a1.462 1.462 0 001.648.669 1.477 1.477 0 001.075-1.425v-8.82c.061-.965.461-1.157 1.093-1.157.77 0 1.1.333 1.1 1.116v3.483c0 .46.214.9.58 1.18.256.194.569.299.885.299.134 0 .265-.02.396-.058.125-.033.266-.053.427-.053.767 0 .877.39.925.554.11.387.37.71.722.898a1.45 1.45 0 001.146.097c.135-.043.293-.067.474-.067.77 0 .878.376.928.561a1.466 1.466 0 001.872 1.005 1.49 1.49 0 01.468-.067c.695 0 .981.29.981.995v8.407h-.01zm-.981-10.87c-.34 0-.65.046-.928.14-.286-1.028-1.13-1.64-2.34-1.64-.34 0-.655.047-.93.141-.29-1.022-1.13-1.623-2.334-1.623-.295 0-.571.037-.82.107V2.595C11.91.995 10.928 0 9.348 0c-1.52 0-2.45.924-2.555 2.541v.054c0 .31-.003 6.192 0 8.86-.406-.692-.773-1.176-1.213-1.526a2.333 2.333 0 00-1.449-.517c-.484 0-.961.158-1.358.477-.78.625-.971 1.69-.49 2.716.816 1.738 2.19 4.531 3.297 6.777.689 1.398 1.284 2.605 1.452 2.97.175.38.588 1.272 1.526 1.272h9.345c1.18 0 2.184-.37 2.833-1.04.646-.668.972-1.596.972-2.762v-8.397c-.004-1.526-.942-2.474-2.447-2.474z" fill="#5CB615" fill-rule="nonzero"/></svg>
